resources/icons/color/experiment.svg

<svg width="64" height="64" viewBox="0 0 64 64" fill="none" xmlns="http://www.w3.org/2000/svg">
<path d="M6 13C6 9.13401 9.13401 6 13 6H51C54.866 6 58 9.13401 58 13V51C58 54.866 54.866 58 51 58H13C9.13401 58 6 54.866 6 51V13Z" fill="url(#paint0_linear_41743_62667)"/>
<path d="M6 13C6 9.13401 9.13401 6 13 6H51C54.866 6 58 9.13401 58 13V51C58 54.866 54.866 58 51 58H13C9.13401 58 6 54.866 6 51V13Z" fill="url(#paint1_radial_41743_62667)" fill-opacity="0.2"/>
<path fill-rule="evenodd" clip-rule="evenodd" d="M51 7H13C9.68629 7 7 9.68629 7 13V51C7 54.3137 9.68629 57 13 57H51C54.3137 57 57 54.3137 57 51V13C57 9.68629 54.3137 7 51 7ZM13 6C9.13401 6 6 9.13401 6 13V51C6 54.866 9.13401 58 13 58H51C54.866 58 58 54.866 58 51V13C58 9.13401 54.866 6 51 6H13Z" fill="url(#paint2_linear_41743_62667)"/>
<path fill-rule="evenodd" clip-rule="evenodd" d="M27 20C26.7239 20 26.5 20.2239 26.5 20.5C26.5 20.7761 26.7239 21 27 21H28V29.5305C28 30.1673 27.8263 30.792 27.4975 31.3374L22.6067 39.4513C21.4014 41.4507 22.8414 44 25.176 44H38.824C41.1586 44 42.5986 41.4507 41.3933 39.4513L36.5025 31.3374C36.1737 30.792 36 30.1673 36 29.5305V21L37 21C37.2761 21 37.5 20.7762 37.5 20.5C37.5 20.2239 37.2761 20 37 20L27 20ZM23.4631 39.9675L25.8546 36L38.125 36C38.1275 36 38.13 36 38.1325 35.9999C38.1367 35.9999 38.1409 35.9998 38.1451 35.9996L40.5369 39.9675C41.3404 41.3005 40.3804 43 38.824 43H25.176C23.6196 43 22.6596 41.3005 23.4631 39.9675Z" fill="url(#paint3_linear_41743_62667)"/>
<defs>
<linearGradient id="paint0_linear_41743_62667" x1="20.4444" y1="6" x2="27.0222" y2="58.6222" gradientUnits="userSpaceOnUse">
<stop stop-color="white"/>
<stop offset="1" stop-color="#EBEBEB"/>
</linearGradient>
<radialGradient id="paint1_radial_41743_62667" cx="0" cy="0" r="1" gradientUnits="userSpaceOnUse" gradientTransform="translate(22.6111 19.5417) rotate(56.3099) scale(49.4762 42.8159)">
<stop offset="0.177083" stop-color="white"/>
<stop offset="1" stop-color="#B8B8B8"/>
</radialGradient>
<linearGradient id="paint2_linear_41743_62667" x1="22.7917" y1="6" x2="29.7931" y2="58.5109" gradientUnits="userSpaceOnUse">
<stop stop-color="#BBBBBB"/>
<stop offset="1" stop-color="#888888"/>
</linearGradient>
<linearGradient id="paint3_linear_41743_62667" x1="22.1713" y1="20" x2="45.7011" y2="39.2721" gradientUnits="userSpaceOnUse">
<stop stop-color="#4BA446"/>
<stop offset="1" stop-color="#3F7D35"/>
</linearGradient>
</defs>
</svg>

<svg xmlns="http://www.w3.org/2000/svg" width="64" height="64" fill="currentColor"><path fill="url(#a)" d="M6 13a7 7 0 0 1 7-7h38a7 7 0 0 1 7 7v38a7 7 0 0 1-7 7H13a7 7 0 0 1-7-7V13Z"/><path fill="url(#b)" fill-opacity=".2" d="M6 13a7 7 0 0 1 7-7h38a7 7 0 0 1 7 7v38a7 7 0 0 1-7 7H13a7 7 0 0 1-7-7V13Z"/><path fill="url(#c)" fill-rule="evenodd" d="M51 7H13a6 6 0 0 0-6 6v38a6 6 0 0 0 6 6h38a6 6 0 0 0 6-6V13a6 6 0 0 0-6-6ZM13 6a7 7 0 0 0-7 7v38a7 7 0 0 0 7 7h38a7 7 0 0 0 7-7V13a7 7 0 0 0-7-7H13Z" clip-rule="evenodd"/><path fill="url(#d)" fill-rule="evenodd" d="M27 20a.5.5 0 0 0 0 1h1v8.53a3.5 3.5 0 0 1-.503 1.807l-4.89 8.114C21.4 41.451 22.84 44 25.176 44h13.648c2.335 0 3.775-2.55 2.57-4.549l-4.892-8.114A3.5 3.5 0 0 1 36 29.531V21h1a.5.5 0 1 0 0-1H27Zm-3.537 19.968L25.855 36h12.29l2.392 3.968C41.34 41.3 40.38 43 38.824 43H25.176c-1.556 0-2.516-1.7-1.713-3.032Z" clip-rule="evenodd"/><defs><linearGradient id="a" x1="20.444" x2="27.022" y1="6" y2="58.622" gradientUnits="userSpaceOnUse"><stop stop-color="#fff"/><stop offset="1" stop-color="#EBEBEB"/></linearGradient><linearGradient id="c" x1="22.792" x2="29.793" y1="6" y2="58.511" gradientUnits="userSpaceOnUse"><stop stop-color="#BBB"/><stop offset="1" stop-color="#888"/></linearGradient><linearGradient id="d" x1="22.171" x2="45.701" y1="20" y2="39.272" gradientUnits="userSpaceOnUse"><stop stop-color="#4BA446"/><stop offset="1" stop-color="#3F7D35"/></linearGradient><radialGradient id="b" cx="0" cy="0" r="1" gradientTransform="rotate(56.31 -6.951 30.895) scale(49.4762 42.8159)" gradientUnits="userSpaceOnUse"><stop offset=".177" stop-color="#fff"/><stop offset="1" stop-color="#B8B8B8"/></radialGradient></defs></svg>
